X: 27350
T: Mister O'Rourke's
R: reel
M: 4/4
K: Gdorian
|:DGGF GABc|d2dc dcBd|c3d cAGE|~F3G FDFA|
GAGF GABc|d2dc dcBd|c3d cAGF|1 DGGF G3F:|2 DGGF G3a||
|:bagf dcBA|DGGF GAGD|CFFE FEFG|AccB c3a|
bagf dcBA|DGGF GAGD|CFFE FABc|1 dBcA G3a:|2 dBcA G3F||

